X:1
T:La Joyeuse
T:Fantaisie 9 
T:Georg Philipp Telemann 
T:Flatteusement - TWV 33
%%score { 1 | 2 }
L:1/8
M:2/4
K:G
V:1 treble nm="Cembalo" snm="Cbl."
V:2 bass 
V:1
 E |[Q:1/4=80] BB B/A/B/c/ | PBA z A | fA A/G/G/F/ | G/F/E z G | cc/B/ B/A/A/G/ | G/F/e z d | %7
 c/B/A/G/ TD3/2^G/4A/4 | A/^G/d z c/B/ | c/B/A/B/ ^G>A | A2 z e | ae ef/g/ | fg/e/ f/d/g | %13
{f} e>^d eb | z b/a/ a/g/g/f/ | f/g/4a/4 a/g/ g/f/f/e/ | e/f/4g/4 g/f/ f/e/ e/^d/ | %17
 ^d/e/f/^d/ B E | BB B/A/B/c/ | PBA z A | fA A/G/G/F/ | G/A/B/c/ PF>E | E2 z E | =F/^D/E z B/E/ | %24
 =F/^D/E z B/E/ | cc/B/ A/G/F/E/ | E/^D/A z G/F/ | G/^d/e/A/ F>E | !fermata!E3 z |] %29
V:2
 z | E,F,G,E, | F,F,,F,E, | ^D,^C,D,B,, | E,E,/F,/G,E, | A,G,F,E, | D,CA,F, | G,CDD, | E,F,^G,E, | %9
 A,D,E,E,, | A,,A,/B,/ CB, | A,B,^CA, | D^CDB, | =CB,CG, | C2 ^CA, | D=CB,G, | CB,A,C | B,B,, z C | %18
 G,F,G,E, | F,F,,F,E, | ^D,^C,D,B,, | E,/F,/G,/A,/ B,B,, | C,B,,C,^G,, | A,,^G,,G,,A,, | %24
 A,,^G,,G,,^G, | A,A,,/B,,/ C,A,, | B,,^C,^D,B,, | G,/F,/G,/A,/ B,B,, | !fermata!E,3 z |] %29

